!!!!SEGMENT: pl-sa--178-a-v-8--001-004_anonim--msza-sanctus.krn
!!!cenid: 17xx:1647
!!!COM: Anonim
!!!COM-rismID: pe30004985
!!!CDT:
!!!CNT:
!!!OPR: Msza
!!!OTL: Sanctus
!!!OMV: 004
!!!PDT:
!!!AGN: Sacred; Mass
!!!YEC: Copyright 2022 Narodowy Instytut Fryderyka Chopina (https://polishscores.org)
!!!YEM: License CC-BY-4.0 (https://creativecommons.org/licenses/by/4.0)
!!!SMS-siglum: PL-SA
!!!SMS-shelfmark: 178/A V 8
!!!SMS-shelfwork: 001-004 M
!!!SMS-variant:
!!!SMS-altvar:
!!!NIFC-rismSourceID: 1001035884
!!!NIFC-rismChildID: 1001035884
!!!NIFC-islandoraID: none
!!!URL-pdf-islandora:
!!!URL-scan: https://bc.bdsandomierz.pl/dlibra/publication/1513/edition/1481/content @EN{Scan in the Sandomierz Diocese Digital Library} @PL{Skany w portalu Cyfrowa Biblioteka Diecezjalna w Sandomierzu}
!!!IIIF:
!!!ONB-nifc: UWAGA: części Mszy: 1. Kyrie, 2. Gloria, 3. Patrem, 4. Sanctus, 5. Agnus Dei
!!!AIN: 1 bass 1 organ 1 soprn 2 violn
!!!key: G
**kern	**fba	**kern	**dynam	**kern	**dynam	**kern	**text	**kern	**text
*	*	*group2	*	*group2	*	*group1	*	*group1	*
*part5	*	*part4	*	*part3	*	*part2	*	*part1	*
*staff5	*	*staff4	*	*staff3	*	*staff2	*	*staff1	*
*I"Organo.	*	*I"Violino 2do.	*	*I"Violino Primo.	*	*I"Baſso	*	*I"Canto.	*
*I'org	*	*I'vl 2	*	*I'vl 1	*	*I'B	*	*I'S	*
*Iorgan	*	*Ivioln	*	*Ivioln	*	*Ibass	*	*Isoprn	*
*ICklav	*	*ICstr	*	*ICstr	*	*ICvox	*	*ICvox	*
*IGcont	*	*	*	*	*	*	*	*	*
*clefF4	*	*clefG2	*	*clefG2	*	*clefF4	*	*clefC1	*
*k[f#]	*	*k[f#]	*	*k[f#]	*	*k[f#]	*	*k[f#]	*
*G:	*	*G:	*	*G:	*	*G:	*	*G:	*
*M4/4	*	*M4/4	*	*M4/4	*	*M4/4	*	*M4/4	*
*met(c)	*	*met(c)	*	*met(c)	*	*met(c)	*	*met(c)	*
=1	=1	=1	=1	=1	=1	=1	=1	=1	=1
*	*	*	*	*	*	*2\right	*	*2\right	*
!LO:TX:a:t=Adagio	!	!LO:TX:a:t=Adagio	!	!LO:TX:a:t=Adagio	!	!LO:TX:a:t=Adagio	!	!LO:TX:a:t=Adagio	!
4G\	.	4gg 4b 4d/	.	4gg 4b 4d/	.	2G\	San-	2dd\	San-
4G\	.	4gg 4b 4d/	.	4gg 4b 4d/	.	.	.	.	.
4G\	.	4gg 4b 4d/	.	4gg 4b 4d/	.	4G\	-ct(us)	4dd\	-ct(us)
4r;	.	4r;	.	4r	.	4r	.	4r;	.
=2	=2	=2	=2	=2	=2	=2	=2	=2	=2
4c\	.	8ee\L	.	8gg\L	.	4c\	Do-	4ee\	Do-
.	.	8ee\J	.	8gg\J	.	.	.	.	.
4c\	.	4ee\	.	4gg\	.	8c\	-mi-	8ee\	-mi-
.	.	.	.	.	.	8c\	-n(us)	8ee\	-n(us)
4B\	.	4dd\	.	4gg\	.	4B\	De-	4dd\	De-
4B\	.	4dd\	.	4gg\	.	4B\	-us	4dd\	-(us)
!	!	!	!	!	!	!	!	!LO:LB:g=original	!
=3	=3	=3	=3	=3	=3	=3	=3	=3	=3
4A\	7	4cc\	.	4gg\	.	4A\	Sa-	4.cc\	Sab-
4D\	7	4cc\	.	4ff#\	.	4D\	-ba-	.	.
.	.	.	.	.	.	.	.	8cc\	-ba-
!LO:TX:a:t=allo	!	!LO:TX:a:t=allo	!	!LO:TX:a:t=allo	!	!LO:TX:a:t=allo	!	!	!
4G\	.	8b\L	.	8gg\L	.	8G\	-oth	8b\	-oth
!	!	!	!	!	!	!	!	!LO:TX:a:t=allo	!
.	.	8b\	.	8gg\	.	8G\	ple-	8dd\	ple-
4G\	.	8b\	.	8gg\	.	8G\	-ni	8dd\	-ni
.	.	8b\J	.	8gg\J	.	8G\	s(un)t	8b\	s(unt)
=4	=4	=4	=4	=4	=4	=4	=4	=4	=4
4c\	.	4ee\	.	4gg\	.	4c\	cae-	4ee\	cae-
!	!	!LO:SIC:o=8ee\L	!	!	!	!	!	!	!
4B\	.	8dd	.	8gg\L	.	8B\	-li	8dd\	-li
!	!	!LO:SIC:o=8ee\J	!	!	!	!	!	!	!
.	.	8dd	.	8gg\J	.	8B\	et	8dd\	et
4A\	7	4cc\	.	8gg\L	.	4A\	ter-	4cc\	ter-
.	.	.	.	16ff#\L	.	.	.	.	.
.	.	.	.	16ee\JJ	.	.	.	.	.
4D\	7	4cc\	.	4ff#\	.	4D\	.	4b\	.
!	!	!LO:LB:g=original	!	!	!	!LO:LB:g=original	!	!	!
=5	=5	=5	=5	=5	=5	=5	=5	=5	=5
4G\	.	4b\	.	4gg\	.	4G\	-ra	4b\	-ra
4r	.	4r	.	4r	.	4r	.	4r	.
4e\	.	4ee\	.	4ee\	.	4B\	glo-	4ee\	glo-
8c\L	.	8cc\L	.	8cc\L	.	8c\	-ri-	8cc\	-ri-
8A\J	.	8a\J	.	8a\J	.	8A\	-a	8a\	-a
=6	=6	=6	=6	=6	=6	=6	=6	=6	=6
4d\	.	4dd\	.	4dd\	.	4d\	glo-	4dd\	glo-
8B\L	.	8b\L	.	8b\L	.	8B\	-ri-	8b\	-ri-
!	!	!	!	!	!	!	!	!LO:TX:t=P:problem=nieczytelny dźwięk [przyjęto zgodnie z B]	!
8G\J	.	8g\J	.	8g\J	.	8G\	-a	8g\	-[a]
!LO:LB:g=original	!	!	!	!	!	!	!	!LO:LB:g=original	!
4A\	.	4cc\	.	4aa\	.	4A\	tu-	2cc\	tu-
4D\	7	4cc\	.	4ff#\	.	4D\	.	.	.
=7	=7	=7	=7	=7	=7	=7	=7	=7	=7
*2\right	*	*2\right	*	*2\right	*	*	*	*	*
2G\	.	2b\	.	2gg\	.	2G\	-a	2b\	-a
!LO:TX:a:t=7	!	!LO:TX:a:t=7	!	!	!	!	!	!	!
2rBB	.	2rg	.	2r	.	2r	.	2re	.
!	!	!	!	!LO:LB:g=original	!	!	!	!	!
=8||	=8||	=8||	=8||	=8||	=8||	=8||	=8||	=8||	=8||
*M2/4	*	*M2/4	*	*M2/4	*	*M2/4	*	*M2/4	*
!LO:TX:b:t=Benedict(us)	!	!LO:TX:b:t=Benedict(us)	!	!LO:TX:b:t=Benedict(us).	!	!	!	!	!
!LO:TX:a:t=Andante	!	!	!	!LO:TX:a:t=Andante	!	!LO:TX:a:t=Benedict(us) Tacet	!	!LO:TX:a:t=Andante	!
8G\L	.	8b\L	.	4dd\	.	2ryy	.	0r	.
8G\	.	8b\	.	.	.	.	.	.	.
8D\	.	8a\	.	16cc\LL	.	.	.	.	.
.	.	.	.	16b\	.	.	.	.	.
8G\J	.	8b\J	.	16a\	.	.	.	.	.
.	.	.	.	16g\JJ	.	.	.	.	.
=9	=9	=9	=9	=9	=9	=9	=9	=9	=9
*	*	*Xtuplet	*	*Xtuplet	*	*	*	*	*
8D\L	.	24f#/LL	.	24f#/LL	.	2ryy	.	.	.
.	.	24g/	.	24g/	.	.	.	.	.
.	.	24a/JJ	.	24a/JJ	.	.	.	.	.
8G\	.	8g/	.	8g/	.	.	.	.	.
8G\	.	16gg\LL	.	16gg\LL	.	.	.	.	.
.	.	16ff#\	.	16ff#\	.	.	.	.	.
8G\J	.	16aa\	.	16aa\	.	.	.	.	.
.	.	16gg\JJ	.	16gg\JJ	.	.	.	.	.
=10	=10	=10	=10	=10	=10	=10	=10	=10	=10
8G\L	.	8b\L	.	4dd\	.	2ryy	.	.	.
8G\	.	8b\	.	.	.	.	.	.	.
8D\	7	8a\	.	16cc\LL	.	.	.	.	.
.	.	.	.	16b\	.	.	.	.	.
8G\J	.	8b\J	.	16a\	.	.	.	.	.
.	.	.	.	16g\JJ	.	.	.	.	.
=11	=11	=11	=11	=11	=11	=11	=11	=11	=11
!	!	!	!	!LO:TUP:b:problem=klamra łukowa	!	!	!	!	!
8D\L	.	24f#/LL	.	24f#/LL	.	2ryy	.	.	.
.	.	24g/	.	24g/	.	.	.	.	.
.	.	24a/JJ	.	24a/JJ	.	.	.	.	.
8G\	.	8g/	.	8g/	.	.	.	.	.
8G\	.	16gg\LL	.	16gg\LL	.	.	.	.	.
.	.	16ff#\	.	16ff#\	.	.	.	.	.
8G\J	.	16aa\	.	16aa\	.	.	.	.	.
.	.	16gg\JJ	.	16gg\JJ	.	.	.	.	.
!	!	!LO:LB:g=original	!	!	!	!	!	!	!
=12	=12	=12	=12	=12	=12	=12	=12	=12	=12
8C/L	.	8.cc\L	.	(8.ee\L	.	2ryy	.	0r	.
8C/	.	.	.	.	.	.	.	.	.
.	.	16dd\Jk	.	16ff#\K)	.	.	.	.	.
8C/	.	8ee\L	.	8gg\	.	.	.	.	.
8C/J	.	8cc\J	.	8ee\J	.	.	.	.	.
=13	=13	=13	=13	=13	=13	=13	=13	=13	=13
8G\L	6 4	8cc\L	.	8ee\L	.	2ryy	.	.	.
8G\	5 3	8b\J	.	8dd\J	.	.	.	.	.
8G\	.	4r	.	4r	.	.	.	.	.
8G\J	.	.	.	.	.	.	.	.	.
=14	=14	=14	=14	=14	=14	=14	=14	=14	=14
8C/L	.	8.cc\L	.	8.ee\L	.	2ryy	.	.	.
8C/	.	.	.	.	.	.	.	.	.
.	.	16dd\Jk	.	16ff#\K	.	.	.	.	.
8C/	.	8ee\L	.	8gg\	.	.	.	.	.
8C/J	.	8cc\J	.	8ee\J	.	.	.	.	.
!LO:LB:g=original	!	!	!	!	!	!	!	!	!
=15	=15	=15	=15	=15	=15	=15	=15	=15	=15
8G\L	6 4	8cc\L	.	8ee\L	.	2ryy	.	.	.
8G\	x 3	8b\J	.	8dd\J	.	.	.	.	.
8G\	.	4r	.	4r	.	.	.	.	.
8G\J	.	.	.	.	.	.	.	.	.
=16	=16	=16	=16	=16	=16	=16	=16	=16	=16
8G\L	6 4	8cc\	.	8ee\	.	2ryy	.	0r	.
8G\	x 3	4b\	.	4dd\	.	.	.	.	.
8G\	.	.	.	.	.	.	.	.	.
8G\J	.	8b\	.	8gg\	.	.	.	.	.
!	!	!	!	!LO:LB:g=original	!	!	!	!	!
=17	=17	=17	=17	=17	=17	=17	=17	=17	=17
4D\	.	16ff#\LL	.	16aa\LL	.	2ryy	.	.	.
.	.	16ee\	.	16gg\	.	.	.	.	.
.	.	16dd\	.	16ff#\	.	.	.	.	.
.	.	16cc\JJ	.	16ee\JJ	.	.	.	.	.
8r	.	8b\L	.	8dd\L	.	.	.	.	.
8D\	.	8a\J	.	8cc\J	.	.	.	.	.
=18	=18	=18	=18	=18	=18	=18	=18	=18	=18
8G\L	.	16cc\LL	.	16cc\LL	.	2ryy	.	.	.
.	.	16b\J	.	16b\J	.	.	.	.	.
8G\	.	8b\J	.	8b\J	.	.	.	.	.
8G\	.	8r	.	8r	.	.	.	.	.
8G\J	.	8b\	.	8gg\	.	.	.	.	.
=19	=19	=19	=19	=19	=19	=19	=19	=19	=19
8G\L	.	8b\L	.	4gg\	.	2ryy	.	.	.
8G\	.	8b\	.	.	.	.	.	.	.
8G\	.	8b\	.	8dd\L	.	.	.	.	.
8G\J	.	8b\J	.	8b\J	.	.	.	.	.
=20	=20	=20	=20	=20	=20	=20	=20	=20	=20
!	!	!LO:TX:t=P:global:problem=niejednoznaczny zapis ozdobnika [przyjęto mordent górny]	!	!LO:TX:t=P:global:problem=niejednoznaczny zapis ozdobnika [przyjęto mordent górny]	!	!	!	!	!
4C/	.	8.ccM\L	.	8.ccM\L	.	2ryy	.	0r	.
.	.	(32dd\LL	.	32dd\LL	.	.	.	.	.
.	.	32ee\JJJ)	.	32ee\JJJ	.	.	.	.	.
8r	.	8b\L	.	8dd\L	.	.	.	.	.
8D\	7	8a\J	.	8cc\J	.	.	.	.	.
=21	=21	=21	=21	=21	=21	=21	=21	=21	=21
4G\	.	4b\	.	4gg\	.	2ryy	.	.	.
4G\	.	8b\L	.	8dd\L	.	.	.	.	.
.	.	8g\J	.	8b\J	.	.	.	.	.
!	!	!LO:LB:g=original	!	!	!	!	!	!	!
=22	=22	=22	=22	=22	=22	=22	=22	=22	=22
8D\L	.	4a/	.	8cc\L	.	2ryy	.	.	.
8D\J	.	.	.	16a\L	.	.	.	.	.
.	.	.	.	16cc\JJ	.	.	.	.	.
8G\	.	8b\	.	8b\	.	.	.	.	.
8r	.	8r	.	8r	.	.	.	.	.
=23	=23	=23	=23	=23	=23	=23	=23	=23	=23
!	!	!	!LO:DY:a:t=Po.	!	!LO:DY:a:t=P o.	!	!	!	!
8G\L	.	8b\L	p	4gg\	p	2ryy	.	.	.
8G\	.	8b\	.	.	.	.	.	.	.
8G\	.	8b\	.	8dd\L	.	.	.	.	.
8G\J	.	8b\J	.	8b\J	.	.	.	.	.
=24	=24	=24	=24	=24	=24	=24	=24	=24	=24
4C/	.	8.ccM\L	.	8.cc\L	.	2ryy	.	0r	.
.	.	(32dd\LL	.	32dd\LL	.	.	.	.	.
.	.	32ee\JJJ)	.	32ee\JJJ	.	.	.	.	.
8r	.	8b\L	.	8dd\L	.	.	.	.	.
8D\	7	8a\J	.	8cc\J	.	.	.	.	.
!LO:LB:g=original	!	!	!	!	!	!	!	!	!
=25	=25	=25	=25	=25	=25	=25	=25	=25	=25
4G\	.	4b\	.	4gg\	.	2ryy	.	.	.
4G\	.	8b\L	.	8dd\L	.	.	.	.	.
.	.	8g\J	.	8b\J	.	.	.	.	.
=26	=26	=26	=26	=26	=26	=26	=26	=26	=26
8D\L	.	4a/	.	8cc\L	.	2ryy	.	.	.
8D\J	.	.	.	16a\L	.	.	.	.	.
.	.	.	.	16cc\JJ	.	.	.	.	.
8G\	.	8b/	.	8b\	.	.	.	.	.
8r	.	8r	.	8r	.	.	.	.	.
!	!	!	!	!LO:LB:g=original	!	!	!	!	!
=27	=27	=27	=27	=27	=27	=27	=27	=27	=27
.	.	.	.	8qqee/	.	.	.	.	.
8G\L	.	4b\	.	4dd\	.	2ryy	.	.	.
8G\	.	.	.	.	.	.	.	.	.
8G\	6 4	16cc\LL	.	(16ee\LL	.	.	.	.	.
.	.	16b\	.	16dd\	.	.	.	.	.
8G\J	.	16cc\	.	16ee\	.	.	.	.	.
.	.	16a\JJ	.	16ff#\JJ)	.	.	.	.	.
=28	=28	=28	=28	=28	=28	=28	=28	=28	=28
4G\	3	8b\L	.	8gg\L|	.	2ryy	.	0r	.
.	.	8cc\	.	(8ee\	.	.	.	.	.
8r	.	8b\	.	8dd\	.	.	.	.	.
8D\	.	8a\J	.	8cc\J)	.	.	.	.	.
=29	=29	=29	=29	=29	=29	=29	=29	=29	=29
8G\L	.	4b\	.	4dd\	.	2ryy	.	.	.
8G\	.	.	.	.	.	.	.	.	.
8G\	6 4	(16cc\LL	.	16ee\LL	.	.	.	.	.
.	.	16b\	.	16dd\	.	.	.	.	.
8G\J	.	16cc\	.	16ee\	.	.	.	.	.
.	.	16a\JJ)	.	16ff#\JJ	.	.	.	.	.
=30	=30	=30	=30	=30	=30	=30	=30	=30	=30
8G\L	3	(8b\L	.	8gg\L	.	2ryy	.	.	.
8G\	.	8cc\J)	.	8ee\J	.	.	.	.	.
!	!	!	!	!LO:TX:a:t=d	!	!	!	!	!
8G\	.	4b\	.	4dd\	.	.	.	.	.
8G\J	.	.	.	.	.	.	.	.	.
=31	=31	=31	=31	=31	=31	=31	=31	=31	=31
2G\	.	(16gg\LL	.	(16gg\LL	.	2ryy	.	.	.
.	.	16ff#\	.	16ff#\	.	.	.	.	.
.	.	16aa\	.	16aa\	.	.	.	.	.
.	.	16gg\JJ)	.	16gg\JJ)	.	.	.	.	.
.	.	(16gg\LL	.	(16gg\LL	.	.	.	.	.
.	.	16ff#\	.	16ff#\	.	.	.	.	.
.	.	16aa\	.	16aa\	.	.	.	.	.
.	.	16gg\JJ)	.	16gg\JJ)	.	.	.	.	.
!	!	!LO:LB:g=original	!	!	!	!	!	!	!
=32	=32	=32	=32	=32	=32	=32	=32	=32	=32
!	!	!	!	!	!LO:DY:a:t=P o.	!	!	!	!
2G\	.	16gg\LL	.	(16gg\LL	p	2ryy	.	0r	.
.	.	16ff#\	.	16ff#\	.	.	.	.	.
.	.	16aa\	.	16aa\	.	.	.	.	.
.	.	16gg\JJ	.	16gg\JJ)	.	.	.	.	.
.	.	16gg\LL	.	(16gg\LL	.	.	.	.	.
.	.	16ff#\	.	16ff#\	.	.	.	.	.
.	.	16aa\	.	16aa\	.	.	.	.	.
.	.	16gg\JJ	.	16gg\JJ)	.	.	.	.	.
=33	=33	=33	=33	=33	=33	=33	=33	=33	=33
4G\	.	8.ggM\L	.	8.ggM\L	.	2ryy	.	.	.
.	.	(32ff#\LL	.	32ff#\LL	.	.	.	.	.
.	.	32ee\JJJ)	.	32ee\JJJ	.	.	.	.	.
8r	.	8dd\L	.	8dd\L	.	.	.	.	.
8C/	.	8cc\J	.	8cc\J	.	.	.	.	.
=34	=34	=34	=34	=34	=34	=34	=34	=34	=34
!	!	!LO:TUP:a:problem=klamra łukowa	!	!	!	!	!	!	!
4D\	.	24b\LL	.	24b\LL|	.	2ryy	.	.	.
.	.	24a\	.	24a\|	.	.	.	.	.
.	.	24b\JJ	.	24b\JJ|	.	.	.	.	.
.	.	24cc\LL|	.	24cc\LL|	.	.	.	.	.
.	.	24b\|	.	24b\|	.	.	.	.	.
.	.	24a\JJ|	.	24a\JJ|	.	.	.	.	.
4DD/	.	4aM/	.	4aM/	.	.	.	.	.
!LO:LB:g=original	!	!	!	!	!	!	!	!	!
=35	=35	=35	=35	=35	=35	=35	=35	=35	=35
8G\L	.	8g/L	.	8g/L	.	2ryy	.	.	.
8D\J	.	16d/L	.	16d/L	.	.	.	.	.
.	.	16B/J	.	16B/J	.	.	.	.	.
8GG/	.	8G/J	.	8G/J	.	.	.	.	.
!	!	!LO:TX:a:t=28	!	!	!	!	!	!LO:TX:t=P:problem=pojedyncza kreska taktowa	!
8r	.	8ryy	.	8r	.	.	.	.	.
!	!	!	!	!LO:PB:g=original	!	!	!	!	!
=36||;	=36||	=36||;	=36||	=36||;	=36||	=36||	=36||	=36||	=36||
!	!	!	!LO:DY:a:t=Po	!	!LO:DY:a:t=Po.	!	!	!	!
8G\L	.	8b\L	p	4dd\	p	2ryy	.	4dd\	Be-
8G\	.	8b\	.	.	.	.	.	.	.
8D\	7	8a\	.	(16cc\LL	.	.	.	16cc\LL	-ne-
.	.	.	.	16b\	.	.	.	16b\JJ	.
8G\J	.	8g\J	.	16a\	.	.	.	16a\LL	.
.	.	.	.	16g\JJ)	.	.	.	16g\JJ	.
=37	=37	=37	=37	=37	=37	=37	=37	=37	=37
*	*	*	*	*tuplet	*	*	*	*Xtuplet	*
!	!	!	!	!LO:TUP:a:problem=klamra łukowa	!	!	!	!	!
8D\L	7	8f#/L	.	24f#/LL	.	2ryy	.	24f#/LL	-di-
.	.	.	.	24g/	.	.	.	24g/	.
.	.	.	.	24a/JJ	.	.	.	24a/JJ	.
8G\	.	8g/J	.	8g/	.	.	.	8g\	-ct(us)
!	!	!	!LO:DY:a:rj:t=f.	!	!	!	!	!	!
8G\	.	16gg\LL	f	(16gg\LL	.	.	.	4r	.
.	.	16ff#\	.	16ff#\	.	.	.	.	.
8G\J	.	16aa\	.	16aa\	.	.	.	.	.
.	.	16gg\JJ	.	16gg\JJ)	.	.	.	.	.
=38	=38	=38	=38	=38	=38	=38	=38	=38	=38
8G\L	.	8b\L	.	4dd\	.	2ryy	.	4dd\	Be-
8G\	.	8b\	.	.	.	.	.	.	.
8D\	7	8a\	.	(16cc\LL	.	.	.	16cc\LL	.
.	.	.	.	16b\	.	.	.	16b\JJ	.
8G\J	.	8g\J	.	16a\	.	.	.	16a\LL	-ne
.	.	.	.	16g\JJ)	.	.	.	16g\JJ	.
!	!	!	!	!	!	!	!	!LO:LB:g=original	!
=39	=39	=39	=39	=39	=39	=39	=39	=39	=39
!	!	!	!	!LO:TUP:a:problem=klamra łukowa	!	!	!	!	!
8D\L	7	8f#/L	.	24f#/LL	.	2ryy	.	24f#/LL	-di-
.	.	.	.	24g/	.	.	.	24g/	.
.	.	.	.	24a/JJ	.	.	.	24a/JJ	.
!	!	!	!	!	!LO:DY:a:t=f.	!	!	!	!
8G\	.	8g/J	.	8g/	f	.	.	8g\	-ct(us)
8G\	.	16gg\LL	.	(16gg\LL	.	.	.	4r	.
.	.	16ff#\	.	16ff#\	.	.	.	.	.
8G\J	.	16aa\	.	16aa\	.	.	.	.	.
.	.	16gg\JJ	.	16gg\JJ)	.	.	.	.	.
!	!	!LO:LB:g=original	!	!	!	!	!	!	!
=40	=40	=40	=40	=40	=40	=40	=40	=40	=40
!	!	!	!	!	!LO:DY:a:t=Po.	!	!	!	!
8C/L	.	8ee\L	.	8.ee\L	p	2ryy	.	8.ee\L	qvi
8C/	.	8ee\	.	.	.	.	.	.	.
.	.	.	.	16ff#\K	.	.	.	16ff#\Jk	.
8C/	.	8ee\	.	8gg\	.	.	.	8gg\L	ve-
8C/J	.	8ee\J	.	8ee\J	.	.	.	8ee\J	.
=41	=41	=41	=41	=41	=41	=41	=41	=41	=41
!	!	!	!LO:DY:a:t=f.	!	!	!	!	!	!
8G\L	6 4	8cc\L	f	8ee\L	.	2ryy	.	8ee\	.
!	!	!	!	!	!LO:DY:a	!	!	!	!
8G\	x 3	8b\J	.	8dd\J	f	.	.	8dd\	-nit
8G\	.	(16gg\LL	.	(16gg\LL	.	.	.	4r	.
.	.	16ff#\	.	16ff#\	.	.	.	.	.
8G\J	.	16aa\	.	16aa\	.	.	.	.	.
.	.	16gg\JJ)	.	16gg\JJ)	.	.	.	.	.
=42	=42	=42	=42	=42	=42	=42	=42	=42	=42
8C/L	.	8ee\	.	8gg\	.	2ryy	.	8.ee\L	ve-
8C/	.	8r	.	8r	.	.	.	.	.
.	.	.	.	.	.	.	.	16ff#\Jk	.
8C/	.	4r	.	4r	.	.	.	8gg\L	.
8C/J	.	.	.	.	.	.	.	8ee\J	.
=43	=43	=43	=43	=43	=43	=43	=43	=43	=43
!	!	!	!LO:DY:a	!	!	!	!	!	!
8G\L	6 4	4r	f	4r	.	2ryy	.	8ee\	.
8G\	x 3	.	.	.	.	.	.	8dd\	-nit
!	!	!	!	!	!LO:DY:a:rj	!	!	!	!
8G\	.	16gg\LL	.	(16gg\LL	f	.	.	4r	.
.	.	16ff#\	.	16ff#\	.	.	.	.	.
8G\J	.	16aa\	.	16aa\	.	.	.	.	.
.	.	16gg\JJ	.	16gg\JJ)	.	.	.	.	.
!LO:LB:g=original	!	!	!	!	!	!	!	!	!
=44	=44	=44	=44	=44	=44	=44	=44	=44	=44
8D\L	.	8a/L	.	8.a\L	.	2ryy	.	8.a\L	qvi
8D\J	.	8a/	.	.	.	.	.	.	.
.	.	.	.	16cc\Jk	.	.	.	16cc\Jk	.
!	!	!	!	!LO:LB:g=original	!	!	!	!LO:LB:g=original	!
4r	.	8a/J	.	(16b\LL	.	.	.	16b\LL	ve-
.	.	.	.	16dd\	.	.	.	16dd\JJ	.
.	.	8r	.	16cc\	.	.	.	16cc\LL	.
.	.	.	.	16ee\JJ)	.	.	.	16ee\JJ	.
=45	=45	=45	=45	=45	=45	=45	=45	=45	=45
4C/	.	4cc\	.	4ee\	.	2ryy	.	4ee\	.
4r	.	(16b\LL	.	(16dd\LL	.	.	.	16dd\LL	.
.	.	16a\JJ)	.	16cc\	.	.	.	16cc\JJ	.
.	.	(16a\LL	.	16cc\	.	.	.	16cc\LL	.
.	.	16g\JJ)	.	16b\JJ)	.	.	.	16b\JJ	.
=46	=46	=46	=46	=46	=46	=46	=46	=46	=46
4C/	.	4cc\	.	4ee\	.	2ryy	.	4ee\	.
8r	.	8b\L	.	(8dd\L	.	.	.	8dd\	-nit
8D\	.	8a\J	.	8cc\J)	.	.	.	8cc\	in
=47	=47	=47	=47	=47	=47	=47	=47	=47	=47
*	*	*	*	*Xtuplet	*	*	*	*	*
!	!	!	!	!LO:TUP:problem=klamra łukowa	!	!	!	!	!
8G\L	.	8b/L	.	24b\LL	.	2ryy	.	24b\LL	no-
.	.	.	.	24a\	.	.	.	24a\	.
.	.	.	.	24b\JJ	.	.	.	24b\JJ	.
8C\J	.	8a/	.	24cc\LL	.	.	.	24cc\LL	.
.	.	.	.	24b\	.	.	.	24b\	.
.	.	.	.	24a\JJ	.	.	.	24a\JJ	.
!LO:TX:t=P:problem=mixed beam	!	!	!	!	!	!	!	!	!
8D\L	.	8g/	.	4aM/	.	.	.	8.a\	.
8DD/J	.	8f#/J	.	.	.	.	.	.	.
.	.	.	.	.	.	.	.	16a\	-mi-
=48	=48	=48	=48	=48	=48	=48	=48	=48	=48
4GG/	.	4g/	.	4g/	.	2ryy	.	4g\	-ne
8r	.	4r	.	8dd\L	.	.	.	8dd\L	ve-
8D\	.	.	.	8ff#\J	.	.	.	8ff#\J	.
!	!	!	!	!	!	!	!	!LO:LB:g=original	!
=49	=49	=49	=49	=49	=49	=49	=49	=49	=49
8A\L	#	8cc#X\	.	8ee\	.	2ryy	.	8ee\L	.
8A\	.	8r	.	8r	.	.	.	16dd\L	.
.	.	.	.	.	.	.	.	16cc#X\JJ	.
8A\	.	8cc#\	.	8ee\	.	.	.	8ee\	.
8A\J	.	8r	.	8r	.	.	.	16dd\	-nit
.	.	.	.	.	.	.	.	16cc#X\	in
!	!	!LO:LB:g=original	!	!	!	!	!	!	!
=50	=50	=50	=50	=50	=50	=50	=50	=50	=50
8D\L	#	4f#/	.	8.dd\L	.	2ryy	.	8.dd\	no-
8D\	.	.	.	.	.	.	.	.	.
.	.	.	.	16cc#X\K	.	.	.	16cc#X\	-mi-
8D\	.	8r	.	8dd\	.	.	.	8dd\	-ne
8D\J	.	8f#/	.	8ff#\J	.	.	.	8ff#\	Do-
=51	=51	=51	=51	=51	=51	=51	=51	=51	=51
8A\L	#	8cc#X\	.	8ee\	.	2ryy	.	8ee\L	.
8A\	.	8r	.	8r	.	.	.	16dd\L	.
.	.	.	.	.	.	.	.	16cc#X\JJ	.
8A\	.	8cc#\	.	8ee\	.	.	.	8ee\L	.
8A\J	.	8r	.	8r	.	.	.	16dd\L	.
.	.	.	.	.	.	.	.	16cc#\JJ	.
=52	=52	=52	=52	=52	=52	=52	=52	=52	=52
!	!	!LO:TX:t=P:problem=mixed beam	!	!	!	!	!	!	!
8D\L	#	8f#/L	.	4dd\	.	2ryy	.	4ee\	.
8D\	.	8f#/	.	.	.	.	.	.	.
8A\	7	8ee\	.	4gg\	.	.	.	4gg\	.
8A\J	.	8ee\J	.	.	.	.	.	.	.
!LO:LB:g=original	!	!	!	!	!	!	!	!	!
=53	=53	=53	=53	=53	=53	=53	=53	=53	=53
!LO:TX:t=P:problem=mixed beam	!	!	!	!LO:TUP:problem=klamra łukowa	!	!	!	!	!
8D\L	.	8ff#\L	.	24ff#\LL	.	2ryy	.	24ff#\LL	.
.	.	.	.	24ee\	.	.	.	24ee\	.
.	.	.	.	24dd\JJ	.	.	.	24dd\JJ	.
8G\	.	8ee\J	.	24gg\LL|	.	.	.	24gg\LL	.
.	.	.	.	24ff#\|	.	.	.	24ff#\	.
.	.	.	.	24ee\JJ|	.	.	.	24ee\JJ	.
!	!	!	!	!	!	!	!	!LO:LB:g=original	!
8A\	.	4eeM\	.	4ee\	.	.	.	8.ee\	.
8AA/J	.	.	.	.	.	.	.	.	.
.	.	.	.	.	.	.	.	16ee\	-mi-
!	!	!	!	!LO:LB:g=original	!	!	!	!	!
=54	=54	=54	=54	=54	=54	=54	=54	=54	=54
8D/L	.	8dd\L	.	8dd\L	.	2ryy	.	8dd\	-ni
8AA/J	.	8a\J	.	16a\L	.	.	.	8r	.
.	.	.	.	16f#\JJ	.	.	.	.	.
8DD/	.	8f#/L	.	8d/	.	.	.	4r	.
8r	.	8d/J	.	8r	.	.	.	.	.
=55	=55	=55	=55	=55	=55	=55	=55	=55	=55
8D\L	.	8ff#\L	.	4aa\	.	2ryy	.	0r	.
8D\J	.	(8ff#\	.	.	.	.	.	.	.
8AA/L	.	8ee\	.	16gg\LL	.	.	.	.	.
.	.	.	.	16ff#\	.	.	.	.	.
8D/J	.	8dd\J)	.	16ee\	.	.	.	.	.
.	.	.	.	16dd\JJ	.	.	.	.	.
=56	=56	=56	=56	=56	=56	=56	=56	=56	=56
*	*	*	*	*tuplet	*	*	*	*	*
!	!	!	!	!LO:TUP:problem=klamra łukowa	!	!	!	!	!
8AA/L	.	8a/L	.	24cc#X\LL	.	2ryy	.	.	.
.	.	.	.	24dd\	.	.	.	.	.
.	.	.	.	24ee\JJ	.	.	.	.	.
8D/J	.	8f#/J	.	8dd\	.	.	.	.	.
4r	.	8r	.	8r	.	.	.	.	.
.	.	8a/	.	8a/	.	.	.	.	.
=57	=57	=57	=57	=57	=57	=57	=57	=57	=57
8G\L	.	8.b\L	.	8.b\L	.	2ryy	.	.	.
8G\J	.	.	.	.	.	.	.	.	.
.	.	16ee\K	.	16gg\	.	.	.	.	.
4r	.	8cc#X\	.	8ee\	.	.	.	.	.
.	.	8cc#\J	.	8cc#X\J	.	.	.	.	.
=58	=58	=58	=58	=58	=58	=58	=58	=58	=58
8D\L	.	8a/	.	16dd\LL	.	2ryy	.	.	.
.	.	.	.	16cc#X\JJ	.	.	.	.	.
8D\J	.	4f#/	.	4dd\	.	.	.	.	.
4r	.	.	.	.	.	.	.	.	.
.	.	8f#/	.	8a/	.	.	.	.	.
!	!	!LO:LB:g=original	!	!	!	!	!	!	!
=59	=59	=59	=59	=59	=59	=59	=59	=59	=59
8G\L	.	8.b\L	.	(8.b\L	.	2ryy	.	0r	.
8G\J	.	.	.	.	.	.	.	.	.
.	.	16ee\K	.	16gg\K	.	.	.	.	.
4r	.	8dd\	.	8ff#\	.	.	.	.	.
.	.	8cc#X\J	.	8ee\J)	.	.	.	.	.
=60	=60	=60	=60	=60	=60	=60	=60	=60	=60
!	!	!LO:TX:t=P:problem=mixed beam	!	!	!	!	!	!	!
8D\L	.	8dd\L	.	8ff#\L	.	2ryy	.	.	.
8D\	.	8f#/J	.	8dd\J	.	.	.	.	.
8D\J	.	8r	.	8r	.	.	.	.	.
8r	.	8cc#X\	.	8ee\	.	.	.	.	.
=61	=61	=61	=61	=61	=61	=61	=61	=61	=61
8D\L	.	8.dd\L	.	(8.ff#\L	.	2ryy	.	.	.
8D\J	.	.	.	.	.	.	.	.	.
.	.	16ee\K	.	16gg\K	.	.	.	.	.
8r	.	8ee\	.	8gg\	.	.	.	.	.
8A\	.	8cc#X\J	.	8ee\J)	.	.	.	.	.
!LO:LB:g=original	!	!	!	!	!	!	!	!	!
=62	=62	=62	=62	=62	=62	=62	=62	=62	=62
8D\L	#	16dd\LL	.	16ff#\LL	.	2ryy	.	.	.
.	.	16cc#X\JJ	.	16ee\JJ	.	.	.	.	.
8D\	.	4dd\	.	4ff#\	.	.	.	.	.
8D\J	.	.	.	.	.	.	.	.	.
8r	.	8a/	.	8a/	.	.	.	.	.
=63	=63	=63	=63	=63	=63	=63	=63	=63	=63
8A\L	#	8.cc#X\L	.	(8.ee\L	.	2ryy	.	0r	.
8A\	.	.	.	.	.	.	.	.	.
.	.	16ee\K	.	16gg\K)	.	.	.	.	.
8A\	.	8dd\	.	8ff#\	.	.	.	.	.
8A\J	.	8cc#\J	.	8ee\J	.	.	.	.	.
!	!	!	!	!LO:LB:g=original	!	!	!	!	!
=64	=64	=64	=64	=64	=64	=64	=64	=64	=64
8D\L	.	8dd\L	.	8ff#\L	.	2ryy	.	.	.
8D\J	.	8dd\J	.	8dd\J	.	.	.	.	.
4r	.	8r	.	8r	.	.	.	.	.
.	.	8a/	.	8a/	.	.	.	.	.
=65	=65	=65	=65	=65	=65	=65	=65	=65	=65
8D\L	.	8.dd\L	.	8.ff#\L	.	2ryy	.	.	.
8D\J	.	.	.	.	.	.	.	.	.
.	.	16ee\K	.	16gg\K	.	.	.	.	.
8r	.	8ee\	.	8gg\	.	.	.	.	.
8A\	.	8cc#X\J	.	8ee\J	.	.	.	.	.
=66	=66	=66	=66	=66	=66	=66	=66	=66	=66
8D\L	.	16dd\LL	.	16ff#\LL	.	2ryy	.	.	.
.	.	16cc#X\JJ	.	16ee\JJ	.	.	.	.	.
8D\	.	4dd\	.	4ff#\	.	.	.	.	.
8D\J	.	.	.	.	.	.	.	.	.
8r	.	8a/	.	8a/	.	.	.	.	.
!	!	!LO:LB:g=original	!	!	!	!	!	!	!
=67	=67	=67	=67	=67	=67	=67	=67	=67	=67
8A\L	#	8.cc#X\L	.	8.ee\L	.	2ryy	.	1r	.
8A\	.	.	.	.	.	.	.	.	.
.	.	16ee\K	.	16gg\K	.	.	.	.	.
8A\	.	8dd\	.	8ff#\	.	.	.	.	.
!	!	!LO:TX:t=P:problem=# above	!	!	!	!	!	!	!
8A\J	.	8cc#X\J	.	8ee\J	.	.	.	.	.
=68	=68	=68	=68	=68	=68	=68	=68	=68	=68
8D\L	.	8dd\L	.	8ff#\L	.	2ryy	.	.	.
8D\J	.	8dd\J	.	8dd\J	.	.	.	.	.
8r	.	8r	.	8r	.	.	.	.	.
8A\	#	8cc#X\	.	8ee\	.	.	.	.	.
=69	=69	=69	=69	=69	=69	=69	=69	=69	=69
*	*	*	*	*Xtuplet	*	*	*	*	*
!LO:TX:t=P:problem=mixed beam	!	!	!	!	!	!	!	!	!
8D\L	.	24ff#\LL|	.	24ff#\LL|	.	2ryy	.	2r	.
.	.	24ee\|	.	24ee\|	.	.	.	.	.
.	.	24dd\JJ|	.	24dd\JJ|	.	.	.	.	.
8G\	.	24gg\LL|	.	24gg\LL|	.	.	.	.	.
.	.	24ff#\|	.	24ff#\|	.	.	.	.	.
.	.	24ee\JJ|	.	24ee\JJ|	.	.	.	.	.
8A\	4	4cc#Xm\	.	4eeM\	.	.	.	.	.
8AA/J	3	.	.	.	.	.	.	.	.
=70	=70	=70	=70	=70	=70	=70	=70	=70	=70
4D\	.	4dd\	.	4dd\	.	2ryy	.	4r	.
4r	.	8r	.	8r	.	.	.	8r	.
.	.	8f#/	.	8a/	.	.	.	8a\	qvi
!LO:PB:g=original	!	!	!	!	!	!	!	!	!
=71	=71	=71	=71	=71	=71	=71	=71	=71	=71
!	!	!	!LO:DY:a:t=P.	!	!LO:DY:a:t=Po.	!	!	!	!
4G\	.	4d/	p	4b\	p	2ryy	.	4b\	ve-
4r	.	4r	.	(16cc#X\LL	.	.	.	16cc#X\LL	.
.	.	.	.	16b\	.	.	.	16b\JJ	.
.	.	.	.	16dd\	.	.	.	16dd\LL	.
.	.	.	.	16cc#\JJ)	.	.	.	16cc#\JJ	.
=72	=72	=72	=72	=72	=72	=72	=72	=72	=72
4A\	#	4cc#X\	.	4ee\	.	2ryy	.	4ee\	.
4r	.	4r	.	(16ee\LL	.	.	.	16ee\LL	.
.	.	.	.	16cc#X\	.	.	.	16cc#X\JJ	.
.	.	.	.	16ff#\	.	.	.	16ff#\LL	.
.	.	.	.	16dd\JJ)	.	.	.	16dd\JJ	.
!	!	!	!	!	!	!	!	!LO:LB:g=original	!
=73	=73	=73	=73	=73	=73	=73	=73	=73	=73
4A\	#	4cc#X\	.	4ee\	.	2ryy	.	4ee\	.
4r	.	4r	.	(16cc#X\LL	.	.	.	16cc#X\LL	.
.	.	.	.	16a\	.	.	.	16a\JJ	.
.	.	.	.	16b\	.	.	.	16b\LL	.
.	.	.	.	16dd\JJ)	.	.	.	16dd\JJ	.
!	!	!	!	!LO:LB:g=original	!	!	!	!	!
=74	=74	=74	=74	=74	=74	=74	=74	=74	=74
8A\L	.	8a/L	.	16cc\LL	.	2ryy	.	16cc#X\LL	.
.	.	.	.	16a\JJ	.	.	.	16a\JJ	.
8A\	.	8a/	.	8a\	.	.	.	8a\	-nit
8A\J	.	8b/J	.	8r	.	.	.	8r	.
8r	.	8r	.	8a\	.	.	.	8a\	in
=75	=75	=75	=75	=75	=75	=75	=75	=75	=75
4G\	.	4g/	.	4b\	.	2ryy	.	4b\	no-
4r	.	4r	.	(16cc#X\LL	.	.	.	16cc#X\LL	.
.	.	.	.	16b\	.	.	.	16b\JJ	.
.	.	.	.	16dd\	.	.	.	16dd\LL	.
.	.	.	.	16cc#\JJ)	.	.	.	16cc#\JJ	.
!	!	!LO:LB:g=original	!	!	!	!	!	!	!
=76	=76	=76	=76	=76	=76	=76	=76	=76	=76
4A\	#	4cc#X\	.	4ee\	.	2ryy	.	4ee\	.
4r	.	4r	.	(16ee\LL	.	.	.	16ee\LL	.
.	.	.	.	16cc#X\	.	.	.	16cc#X\JJ	.
.	.	.	.	16ff#\	.	.	.	16ff#\LL	.
.	.	.	.	16dd\JJ)	.	.	.	16dd\JJ	.
=77	=77	=77	=77	=77	=77	=77	=77	=77	=77
8A\L	#	4cc#X\	.	4ee\	.	2ryy	.	4ee\	.
8A\	.	.	.	.	.	.	.	.	.
8A\	.	4r	.	(16ee\LL	.	.	.	16ee\LL	.
.	.	.	.	16cc#X\JJ)	.	.	.	16cc#X\JJ	.
8A\J	7	.	.	(16gg\LL	.	.	.	16gg\LL	.
.	.	.	.	16ee\JJ)	.	.	.	16ee\JJ	.
!	!	!	!	!	!	!	!	!LO:LB:g=original	!
=78	=78	=78	=78	=78	=78	=78	=78	=78	=78
!LO:TX:t=P:problem=mixed beam	!	!	!	!	!	!	!	!	!
8D\L	.	1r	.	1r	.	2ryy	.	24ff#\LL	.
.	.	.	.	.	.	.	.	24ee\	.
.	.	.	.	.	.	.	.	24dd\JJ	.
8G\	.	.	.	.	.	.	.	24gg\LL	-mi-
.	.	.	.	.	.	.	.	24ff#\	.
.	.	.	.	.	.	.	.	24ee\JJ	-ne
8A\	.	.	.	.	.	.	.	8.ee\	Do-
8AA/J	.	.	.	.	.	.	.	.	.
.	.	.	.	.	.	.	.	16ee\	-mi-
=79	=79	=79	=79	=79	=79	=79	=79	=79	=79
8D/L	.	.	.	.	.	2ryy	.	8dd\	-ni
8AA/J	.	.	.	.	.	.	.	8r	.
8DD/	.	.	.	.	.	.	.	4r	.
8r	.	.	.	.	.	.	.	.	.
=80	=80	=80	=80	=80	=80	=80	=80	=80	=80
4Fn\	.	4a/	.	4dd\	.	2ryy	.	4dd\	Be-
4r	.	4r	.	16ffn\LL	.	.	.	16ffn\LL	.
.	.	.	.	16dd\	.	.	.	16dd\JJ	.
.	.	.	.	16cc\	.	.	.	16b\LL	-ne-
.	.	.	.	16b\JJ	.	.	.	16a\JJ	.
=81	=81	=81	=81	=81	=81	=81	=81	=81	=81
8E\L	.	8g#X/L	.	8g#X/L	.	2ryy	.	8g#X\	-di-
16A\L	.	8e/J	.	8a/J	.	.	.	8a\	-ct(us)
16E\JJ	.	.	.	.	.	.	.	.	.
!LO:LB:g=original	!	!	!	!	!	!	!	!	!
8C/L	.	4r	.	4r	.	.	.	4r	.
8AA/J	.	.	.	.	.	.	.	.	.
=82	=82	=82	=82	=82	=82	=82	=82	=82	=82
4D\	.	4f#/	.	4ccn\	.	2ryy	.	4cc\	qvi
4r	.	4r	.	(16ee\LL	.	.	.	16ee\LL	ve-
.	.	.	.	16cc\	.	.	.	16cc\JJ	.
.	.	.	.	16a\	.	.	.	16a\LL	.
.	.	.	.	16g\JJ)	.	.	.	16gn\JJ	.
=83	=83	=83	=83	=83	=83	=83	=83	=83	=83
8D\L	.	8f#/L	.	8f#/L	.	2ryy	.	8f#/	.
!	!	!	!	!	!	!	!	!LO:TX:t=P:problem=dźwięk nieczytelny - defekt źródła [przyjęto zgodnie z vl I]	!
8G\J	.	8g/J	.	8g/J	.	.	.	8g\yy	-[nit]
!	!	!	!	!	!	!	!	!LO:PB:g=original	!
8r	.	8r	.	8r	.	.	.	8r	.
8D\	.	8f#/	.	8a/	.	.	.	8a\	qvi
!	!	!	!	!LO:LB:g=original	!	!	!	!	!
=84	=84	=84	=84	=84	=84	=84	=84	=84	=84
8G\L	.	8g/L	.	24b\LL|	.	2ryy	.	24b\LL	ve-
.	.	.	.	24a\|	.	.	.	24a\	.
.	.	.	.	24g\JJ|	.	.	.	24g\JJ	.
8C\J	.	8a/J	.	24cc\LL|	.	.	.	24cc\LL	.
.	.	.	.	24b\|	.	.	.	24b\	.
.	.	.	.	24a\JJ|	.	.	.	24a\JJ	.
!LO:TX:t=P:problem=mixed beam	!	!	!	!	!	!	!	!LO:TX:t=P:global:problem=niejednoznaczny zapis ozdobnika [przyjęto mordent górny]	!
8D\L	.	4f#m/	.	4aM/	.	.	.	4aM\	.
8DD/J	.	.	.	.	.	.	.	.	.
=85	=85	=85	=85	=85	=85	=85	=85	=85	=85
8G\L	.	8g/	.	8g/	.	2ryy	.	8g\	-nit
16D\L	.	8r	.	8r	.	.	.	8r	.
16BB\JJ	.	.	.	.	.	.	.	.	.
8GG/	.	4r	.	4r	.	.	.	4r	.
8r	.	.	.	.	.	.	.	.	.
=86	=86	=86	=86	=86	=86	=86	=86	=86	=86
8G\L	.	2r	.	2r	.	2ryy	.	4dd\	Be-
8G\	.	.	.	.	.	.	.	.	.
8D\	.	.	.	.	.	.	.	16cc\LL	.
.	.	.	.	.	.	.	.	16b\JJ	.
8G\J	.	.	.	.	.	.	.	16a\LL	-ne-
.	.	.	.	.	.	.	.	16g\JJ	.
=87	=87	=87	=87	=87	=87	=87	=87	=87	=87
!	!	!	!LO:DY:a	!	!LO:DY:a	!	!	!	!
8D\L	.	4r	f	4r	f	2ryy	.	24f#/LL	-di-
.	.	.	.	.	.	.	.	24g/	.
.	.	.	.	.	.	.	.	24a/JJ	.
8G\	.	.	.	.	.	.	.	8g/	-ct(us)
8G\	.	(16gg\LL	.	16gg\LL	.	.	.	4r	.
.	.	16ff#\	.	16ff#\	.	.	.	.	.
8G\J	.	16aa\	.	16aa\	.	.	.	.	.
.	.	16gg\JJ)	.	16gg\JJ	.	.	.	.	.
!	!	!LO:LB:g=original	!	!	!	!	!	!	!
=88	=88	=88	=88	=88	=88	=88	=88	=88	=88
!	!	!LO:TX:a:t=1	!	!	!	!	!	!	!
8G\L	.	2r	.	2r	.	2ryy	.	4dd\	Be-
8G\	.	.	.	.	.	.	.	.	.
8G\	.	.	.	.	.	.	.	16cc\LL	.
.	.	.	.	.	.	.	.	16b\JJ	.
8G\J	.	.	.	.	.	.	.	16a\LL	-ne
.	.	.	.	.	.	.	.	16g\JJ	.
=89	=89	=89	=89	=89	=89	=89	=89	=89	=89
!	!	!	!LO:DY:a	!	!	!	!	!	!
8D\L	.	4r	f	4r	.	2ryy	.	24f#/LL	-di-
.	.	.	.	.	.	.	.	24g/	.
.	.	.	.	.	.	.	.	24a/JJ	.
8G\	.	.	.	.	.	.	.	8g/	-ct(us)
8G\	.	(16gg\LL	.	16gg\LL	.	.	.	4r	.
.	.	16ff#\	.	16ff#\	.	.	.	.	.
8G\J	.	16aa\	.	16aa\	.	.	.	.	.
.	.	16gg\JJ)	.	16gg\JJ	.	.	.	.	.
!LO:LB:g=original	!	!	!	!	!	!	!	!LO:LB:g=original	!
=90	=90	=90	=90	=90	=90	=90	=90	=90	=90
8C/L	.	0r	.	0r	.	2ryy	.	8.ee\	qvi
8C/	.	.	.	.	.	.	.	.	.
.	.	.	.	.	.	.	.	16ff#\	.
8C/	.	.	.	.	.	.	.	8gg\L	ve-
8C/J	.	.	.	.	.	.	.	8ee\J	.
=91	=91	=91	=91	=91	=91	=91	=91	=91	=91
8G\L	6 4	.	.	.	.	2ryy	.	8ee\	.
8G\	x 3	.	.	.	.	.	.	8dd\	-nit
8G\	.	.	.	.	.	.	.	4r	.
8G\J	.	.	.	.	.	.	.	.	.
=92	=92	=92	=92	=92	=92	=92	=92	=92	=92
8C/L	.	.	.	.	.	2ryy	.	16ee\LL	qvi
.	.	.	.	.	.	.	.	16ff#\JJ	.
8C/	.	.	.	.	.	.	.	16gg\LL	ve-
.	.	.	.	.	.	.	.	16ff#\JJ	.
8C/	.	.	.	.	.	.	.	16gg\LL	.
.	.	.	.	.	.	.	.	16ff#\JJ	.
8C/J	.	.	.	.	.	.	.	16gg\LL	.
.	.	.	.	.	.	.	.	16ee\JJ	.
=93	=93	=93	=93	=93	=93	=93	=93	=93	=93
8G\L	6 4	.	.	.	.	2ryy	.	8ee\	.
8G\	x 3	.	.	.	.	.	.	8dd\	-nit
8G\	.	.	.	.	.	.	.	8r	.
8G\J	.	.	.	.	.	.	.	8dd\	qvi
=94	=94	=94	=94	=94	=94	=94	=94	=94	=94
8G\L	.	8b\L	.	8.gg\L	.	2ryy	.	8.gg\L	ve-
8G\	.	8b\	.	.	.	.	.	.	.
.	.	.	.	16dd\Jk	.	.	.	16dd\Jk	.
8G\	.	8b\	.	8.b\L	.	.	.	8.b\L	.
8G\J	.	8b\J	.	.	.	.	.	.	.
.	.	.	.	16dd\Jk	.	.	.	16dd\Jk	.
=95	=95	=95	=95	=95	=95	=95	=95	=95	=95
8C/L	6	8a/L	.	8.ee\L	.	2ryy	.	8.ee\L	.
8C/J	.	8a/	.	.	.	.	.	.	.
.	.	.	.	16cc\Jk	.	.	.	16cc\Jk	.
8D\L	7	8f#/	.	8.a\L	.	.	.	8.a\L	.
8D\J	.	8f#/J	.	.	.	.	.	.	.
.	.	.	.	16cc\Jk	.	.	.	16cc\Jk	.
!	!	!	!	!	!	!	!	!LO:LB:g=original	!
=96	=96	=96	=96	=96	=96	=96	=96	=96	=96
4G\	.	4g/	.	8.bm\L	.	2ryy	.	8.bm\L	.
.	.	.	.	(32a\LL	.	.	.	(32a\LL	.
.	.	.	.	32b\JJJ)	.	.	.	32b\JJJ)	.
8r	.	4r	.	8cc\	.	.	.	8cc\	-nit
8D\	.	.	.	8r	.	.	.	8r	.
!	!	!	!	!LO:LB:g=original	!	!	!	!	!
=97	=97	=97	=97	=97	=97	=97	=97	=97	=97
4G\	.	4g/	.	8.bm\L	.	2ryy	.	8.bm\L	ve-
.	.	.	.	(32a\LL	.	.	.	(32a\LL	.
.	.	.	.	32b\JJJ)	.	.	.	32b\JJJ)	.
8r	.	4r	.	8cc\	.	.	.	8cc\	-nit
8D\	.	.	.	8r	.	.	.	8r	.
=98	=98	=98	=98	=98	=98	=98	=98	=98	=98
8G\L	.	1r	.	1r	.	2ryy	.	24b\LL	in
.	.	.	.	.	.	.	.	24a\	.
.	.	.	.	.	.	.	.	24b\JJ	.
8C\J	.	.	.	.	.	.	.	24cc\LL	no-
.	.	.	.	.	.	.	.	24b\	-mi-
.	.	.	.	.	.	.	.	24a\JJ	-ne
!LO:TX:t=P:problem=mixed beam	!	!	!	!	!	!	!	!	!
8D\L	.	.	.	.	.	.	.	8.a\	Do-
8DD/J	.	.	.	.	.	.	.	.	.
.	.	.	.	.	.	.	.	16a\	-mi-
=99	=99	=99	=99	=99	=99	=99	=99	=99	=99
8G\L	.	.	.	.	.	2ryy	.	8g\	-ni
16D\L	.	.	.	.	.	.	.	8r	.
16BB\JJ	.	.	.	.	.	.	.	.	.
!	!	!	!	!	!	!	!	!LO:TX:t=P:problem=pojedyncza kreska taktowa	!
8GG/	.	.	.	.	.	.	.	4r	.
!LO:TX:t=P:problem=niewidoczna pauza ósemkowa [defekt źródła]	!	!LO:TX:t=P:problem=pojedyncza kreska taktowa	!	!	!	!	!	!	!
!LO:TX:a:t=64	!	!LO:TX:a:t=64	!	!LO:TX:a:t=64	!	!	!	!	!
!LO:TX:b:t=Da Capo	!	!LO:TX:a:i:t=Da Capo ad Signo	!	!LO:TX:a:i:t=Da Capo ad Segno	!	!	!	!	!
8ryy	.	.	.	.	.	.	.	.	.
!LO:LB:g=original	!	!	!	!	!	!	!	!	!
=100||	=100||	=100||	=100||	=100||	=100||	=100||	=100||	=100||	=100||
=100||	=100||	=100||	=100||	=100||	=100||	=100||	=100||	=100||	=100||
*M2/4	*	*M2/4	*	*M2/4	*	*M2/4	*	*M2/4	*
!LO:TX:b:t=Benedict(us)	!	!LO:TX:b:t=Benedict(us)	!	!LO:TX:b:t=Benedict(us).	!	!	!	!	!
!LO:TX:a:t=Andante	!	!	!	!LO:TX:a:t=Andante	!	!LO:TX:a:t=Benedict(us) Tacet	!	!LO:TX:a:t=Andante	!
8G\Lyy	.	8b\Lyy	.	4dd\yy	.	2ryy	.	0r	.
8G\yy	.	8b\yy	.	.	.	.	.	.	.
8D\yy	.	8a\yy	.	16cc\LLyy	.	.	.	.	.
.	.	.	.	16b\yy	.	.	.	.	.
8G\Jyy	.	8b\Jyy	.	16a\yy	.	.	.	.	.
.	.	.	.	16g\JJyy	.	.	.	.	.
=101	=101	=101	=101	=101	=101	=101	=101	=101	=101
*	*	*Xtuplet	*	*Xtuplet	*	*	*	*	*
8D\Lyy	.	24f#/LLyy	.	24f#/LLyy	.	2ryy	.	.	.
.	.	24g/yy	.	24g/yy	.	.	.	.	.
.	.	24a/JJyy	.	24a/JJyy	.	.	.	.	.
8G\yy	.	8g/yy	.	8g/yy	.	.	.	.	.
8G\yy	.	16gg\LLyy	.	16gg\LLyy	.	.	.	.	.
.	.	16ff#\yy	.	16ff#\yy	.	.	.	.	.
8G\Jyy	.	16aa\yy	.	16aa\yy	.	.	.	.	.
.	.	16gg\JJyy	.	16gg\JJyy	.	.	.	.	.
=102	=102	=102	=102	=102	=102	=102	=102	=102	=102
8G\Lyy	.	8b\Lyy	.	4dd\yy	.	2ryy	.	.	.
8G\yy	.	8b\yy	.	.	.	.	.	.	.
8D\yy	7	8a\yy	.	16cc\LLyy	.	.	.	.	.
.	.	.	.	16b\yy	.	.	.	.	.
8G\Jyy	.	8b\Jyy	.	16a\yy	.	.	.	.	.
.	.	.	.	16g\JJyy	.	.	.	.	.
=103	=103	=103	=103	=103	=103	=103	=103	=103	=103
!	!	!	!	!LO:TUP:b:problem=klamra łukowa	!	!	!	!	!
8D\Lyy	.	24f#/LLyy	.	24f#/LLyy	.	2ryy	.	.	.
.	.	24g/yy	.	24g/yy	.	.	.	.	.
.	.	24a/JJyy	.	24a/JJyy	.	.	.	.	.
8G\yy	.	8g/yy	.	8g/yy	.	.	.	.	.
8G\yy	.	16gg\LLyy	.	16gg\LLyy	.	.	.	.	.
.	.	16ff#\yy	.	16ff#\yy	.	.	.	.	.
8G\Jyy	.	16aa\yy	.	16aa\yy	.	.	.	.	.
.	.	16gg\JJyy	.	16gg\JJyy	.	.	.	.	.
!	!	!LO:LB:g=original	!	!	!	!	!	!	!
=104	=104	=104	=104	=104	=104	=104	=104	=104	=104
8C/Lyy	.	8.cc\Lyy	.	(8.ee\Lyy	.	2ryy	.	0r	.
8C/yy	.	.	.	.	.	.	.	.	.
.	.	16dd\Jkyy	.	16ff#\K)yy	.	.	.	.	.
8C/yy	.	8ee\Lyy	.	8gg\yy	.	.	.	.	.
8C/Jyy	.	8cc\Jyy	.	8ee\Jyy	.	.	.	.	.
=105	=105	=105	=105	=105	=105	=105	=105	=105	=105
8G\Lyy	6 4	8cc\Lyy	.	8ee\Lyy	.	2ryy	.	.	.
8G\yy	5 3	8b\Jyy	.	8dd\Jyy	.	.	.	.	.
8G\yy	.	4ryy	.	4ryy	.	.	.	.	.
8G\Jyy	.	.	.	.	.	.	.	.	.
=106	=106	=106	=106	=106	=106	=106	=106	=106	=106
8C/Lyy	.	8.cc\Lyy	.	8.ee\Lyy	.	2ryy	.	.	.
8C/yy	.	.	.	.	.	.	.	.	.
.	.	16dd\Jkyy	.	16ff#\Kyy	.	.	.	.	.
8C/yy	.	8ee\Lyy	.	8gg\yy	.	.	.	.	.
8C/Jyy	.	8cc\Jyy	.	8ee\Jyy	.	.	.	.	.
!LO:LB:g=original	!	!	!	!	!	!	!	!	!
=107	=107	=107	=107	=107	=107	=107	=107	=107	=107
8G\Lyy	6 4	8cc\Lyy	.	8ee\Lyy	.	2ryy	.	.	.
8G\yy	x 3	8b\Jyy	.	8dd\Jyy	.	.	.	.	.
8G\yy	.	4ryy	.	4ryy	.	.	.	.	.
8G\Jyy	.	.	.	.	.	.	.	.	.
=108	=108	=108	=108	=108	=108	=108	=108	=108	=108
8G\Lyy	6 4	8cc\yy	.	8ee\yy	.	2ryy	.	0r	.
8G\yy	x 3	4b\yy	.	4dd\yy	.	.	.	.	.
8G\yy	.	.	.	.	.	.	.	.	.
8G\Jyy	.	8b\yy	.	8gg\yy	.	.	.	.	.
!	!	!	!	!LO:LB:g=original	!	!	!	!	!
=109	=109	=109	=109	=109	=109	=109	=109	=109	=109
4D\yy	.	16ff#\LLyy	.	16aa\LLyy	.	2ryy	.	.	.
.	.	16ee\yy	.	16gg\yy	.	.	.	.	.
.	.	16dd\yy	.	16ff#\yy	.	.	.	.	.
.	.	16cc\JJyy	.	16ee\JJyy	.	.	.	.	.
8ryy	.	8b\Lyy	.	8dd\Lyy	.	.	.	.	.
8D\yy	.	8a\Jyy	.	8cc\Jyy	.	.	.	.	.
=110	=110	=110	=110	=110	=110	=110	=110	=110	=110
8G\Lyy	.	16cc\LLyy	.	16cc\LLyy	.	2ryy	.	.	.
.	.	16b\Jyy	.	16b\Jyy	.	.	.	.	.
8G\yy	.	8b\Jyy	.	8b\Jyy	.	.	.	.	.
8G\yy	.	8ryy	.	8ryy	.	.	.	.	.
8G\Jyy	.	8b\yy	.	8gg\yy	.	.	.	.	.
=111	=111	=111	=111	=111	=111	=111	=111	=111	=111
8G\Lyy	.	8b\Lyy	.	4gg\yy	.	2ryy	.	.	.
8G\yy	.	8b\yy	.	.	.	.	.	.	.
8G\yy	.	8b\yy	.	8dd\Lyy	.	.	.	.	.
8G\Jyy	.	8b\Jyy	.	8b\Jyy	.	.	.	.	.
=112	=112	=112	=112	=112	=112	=112	=112	=112	=112
!	!	!LO:TX:t=P:global:problem=niejednoznaczny zapis ozdobnika [przyjęto mordent górny]	!	!LO:TX:t=P:global:problem=niejednoznaczny zapis ozdobnika [przyjęto mordent górny]	!	!	!	!	!
4C/yy	.	8.ccM\Lyy	.	8.ccM\Lyy	.	2ryy	.	0r	.
.	.	(32dd\LLyy	.	32dd\LLyy	.	.	.	.	.
.	.	32ee\JJJ)yy	.	32ee\JJJyy	.	.	.	.	.
8ryy	.	8b\Lyy	.	8dd\Lyy	.	.	.	.	.
8D\yy	7	8a\Jyy	.	8cc\Jyy	.	.	.	.	.
=113	=113	=113	=113	=113	=113	=113	=113	=113	=113
4G\yy	.	4b\yy	.	4gg\yy	.	2ryy	.	.	.
4G\yy	.	8b\Lyy	.	8dd\Lyy	.	.	.	.	.
.	.	8g\Jyy	.	8b\Jyy	.	.	.	.	.
!	!	!LO:LB:g=original	!	!	!	!	!	!	!
=114	=114	=114	=114	=114	=114	=114	=114	=114	=114
8D\Lyy	.	4a/yy	.	8cc\Lyy	.	2ryy	.	.	.
8D\Jyy	.	.	.	16a\Lyy	.	.	.	.	.
.	.	.	.	16cc\JJyy	.	.	.	.	.
8G\yy	.	8b\yy	.	8b\yy	.	.	.	.	.
8ryy	.	8ryy	.	8ryy	.	.	.	.	.
=115	=115	=115	=115	=115	=115	=115	=115	=115	=115
!	!	!	!LO:DY:a:t=Po.	!	!LO:DY:a:t=P o.	!	!	!	!
8G\Lyy	.	8b\Lyy	py	4gg\yy	py	2ryy	.	.	.
8G\yy	.	8b\yy	.	.	.	.	.	.	.
8G\yy	.	8b\yy	.	8dd\Lyy	.	.	.	.	.
8G\Jyy	.	8b\Jyy	.	8b\Jyy	.	.	.	.	.
=116	=116	=116	=116	=116	=116	=116	=116	=116	=116
4C/yy	.	8.ccM\Lyy	.	8.cc\Lyy	.	2ryy	.	0r	.
.	.	(32dd\LLyy	.	32dd\LLyy	.	.	.	.	.
.	.	32ee\JJJ)yy	.	32ee\JJJyy	.	.	.	.	.
8ryy	.	8b\Lyy	.	8dd\Lyy	.	.	.	.	.
8D\yy	7	8a\Jyy	.	8cc\Jyy	.	.	.	.	.
!LO:LB:g=original	!	!	!	!	!	!	!	!	!
=117	=117	=117	=117	=117	=117	=117	=117	=117	=117
4G\yy	.	4b\yy	.	4gg\yy	.	2ryy	.	.	.
4G\yy	.	8b\Lyy	.	8dd\Lyy	.	.	.	.	.
.	.	8g\Jyy	.	8b\Jyy	.	.	.	.	.
=118	=118	=118	=118	=118	=118	=118	=118	=118	=118
8D\Lyy	.	4a/yy	.	8cc\Lyy	.	2ryy	.	.	.
8D\Jyy	.	.	.	16a\Lyy	.	.	.	.	.
.	.	.	.	16cc\JJyy	.	.	.	.	.
8G\yy	.	8b/yy	.	8b\yy	.	.	.	.	.
8ryy	.	8ryy	.	8ryy	.	.	.	.	.
!	!	!	!	!LO:LB:g=original	!	!	!	!	!
=119	=119	=119	=119	=119	=119	=119	=119	=119	=119
.	.	.	.	8qqee/yy	.	.	.	.	.
8G\Lyy	.	4b\yy	.	4dd\yy	.	2ryy	.	.	.
8G\yy	.	.	.	.	.	.	.	.	.
8G\yy	6 4	16cc\LLyy	.	(16ee\LLyy	.	.	.	.	.
.	.	16b\yy	.	16dd\yy	.	.	.	.	.
8G\Jyy	.	16cc\yy	.	16ee\yy	.	.	.	.	.
.	.	16a\JJyy	.	16ff#\JJ)yy	.	.	.	.	.
=120	=120	=120	=120	=120	=120	=120	=120	=120	=120
4G\yy	3	8b\Lyy	.	8gg\L|yy	.	2ryy	.	0r	.
.	.	8cc\yy	.	(8ee\yy	.	.	.	.	.
8ryy	.	8b\yy	.	8dd\yy	.	.	.	.	.
8D\yy	.	8a\Jyy	.	8cc\J)yy	.	.	.	.	.
=121	=121	=121	=121	=121	=121	=121	=121	=121	=121
8G\Lyy	.	4b\yy	.	4dd\yy	.	2ryy	.	.	.
8G\yy	.	.	.	.	.	.	.	.	.
8G\yy	6 4	(16cc\LLyy	.	16ee\LLyy	.	.	.	.	.
.	.	16b\yy	.	16dd\yy	.	.	.	.	.
8G\Jyy	.	16cc\yy	.	16ee\yy	.	.	.	.	.
.	.	16a\JJ)yy	.	16ff#\JJyy	.	.	.	.	.
=122	=122	=122	=122	=122	=122	=122	=122	=122	=122
8G\Lyy	3	(8b\Lyy	.	8gg\Lyy	.	2ryy	.	.	.
8G\yy	.	8cc\J)yy	.	8ee\Jyy	.	.	.	.	.
!	!	!	!	!LO:TX:a:t=d	!	!	!	!	!
8G\yy	.	4b\yy	.	4dd\yy	.	.	.	.	.
8G\Jyy	.	.	.	.	.	.	.	.	.
=123	=123	=123	=123	=123	=123	=123	=123	=123	=123
2G\yy	.	(16gg\LLyy	.	(16gg\LLyy	.	2ryy	.	.	.
.	.	16ff#\yy	.	16ff#\yy	.	.	.	.	.
.	.	16aa\yy	.	16aa\yy	.	.	.	.	.
.	.	16gg\JJ)yy	.	16gg\JJ)yy	.	.	.	.	.
.	.	(16gg\LLyy	.	(16gg\LLyy	.	.	.	.	.
.	.	16ff#\yy	.	16ff#\yy	.	.	.	.	.
.	.	16aa\yy	.	16aa\yy	.	.	.	.	.
.	.	16gg\JJ)yy	.	16gg\JJ)yy	.	.	.	.	.
!	!	!LO:LB:g=original	!	!	!	!	!	!	!
=124	=124	=124	=124	=124	=124	=124	=124	=124	=124
!	!	!	!	!	!LO:DY:a:t=P o.	!	!	!	!
2G\yy	.	16gg\LLyy	.	(16gg\LLyy	py	2ryy	.	0r	.
.	.	16ff#\yy	.	16ff#\yy	.	.	.	.	.
.	.	16aa\yy	.	16aa\yy	.	.	.	.	.
.	.	16gg\JJyy	.	16gg\JJ)yy	.	.	.	.	.
.	.	16gg\LLyy	.	(16gg\LLyy	.	.	.	.	.
.	.	16ff#\yy	.	16ff#\yy	.	.	.	.	.
.	.	16aa\yy	.	16aa\yy	.	.	.	.	.
.	.	16gg\JJyy	.	16gg\JJ)yy	.	.	.	.	.
=125	=125	=125	=125	=125	=125	=125	=125	=125	=125
4G\yy	.	8.ggM\Lyy	.	8.ggM\Lyy	.	2ryy	.	.	.
.	.	(32ff#\LLyy	.	32ff#\LLyy	.	.	.	.	.
.	.	32ee\JJJ)yy	.	32ee\JJJyy	.	.	.	.	.
8ryy	.	8dd\Lyy	.	8dd\Lyy	.	.	.	.	.
8C/yy	.	8cc\Jyy	.	8cc\Jyy	.	.	.	.	.
=126	=126	=126	=126	=126	=126	=126	=126	=126	=126
!	!	!LO:TUP:a:problem=klamra łukowa	!	!	!	!	!	!	!
4D\yy	.	24b\LLyy	.	24b\LL|yy	.	2ryy	.	.	.
.	.	24a\yy	.	24a\|yy	.	.	.	.	.
.	.	24b\JJyy	.	24b\JJ|yy	.	.	.	.	.
.	.	24cc\LL|yy	.	24cc\LL|yy	.	.	.	.	.
.	.	24b\|yy	.	24b\|yy	.	.	.	.	.
.	.	24a\JJ|yy	.	24a\JJ|yy	.	.	.	.	.
4DD/yy	.	4aM/yy	.	4aM/yy	.	.	.	.	.
!LO:LB:g=original	!	!	!	!	!	!	!	!	!
=127	=127	=127	=127	=127	=127	=127	=127	=127	=127
8G\Lyy	.	8g/Lyy	.	8g/Lyy	.	2ryy	.	.	.
8D\Jyy	.	16d/Lyy	.	16d/Lyy	.	.	.	.	.
.	.	16B/Jyy	.	16B/Jyy	.	.	.	.	.
8GG/yy	.	8G/Jyy	.	8G/Jyy	.	.	.	.	.
!	!	!LO:TX:a:t=28	!	!	!	!	!	!LO:TX:t=P:problem=pojedyncza kreska taktowa	!
8ryy	.	8ryyyy	.	8ryy	.	.	.	.	.
!	!	!	!	!LO:PB:g=original	!	!	!	!	!
!	!	!LO:PB:g=original	!	!	!	!LO:LB:g=original	!	!LO:LB:g=original	!
=128||	=128||	=128||	=128||	=128||	=128||	=128||	=128||	=128||	=128||
*clefC1	*	*	*	*	*	*	*	*	*
*M2/2	*	*M2/2	*	*M2/2	*	*M2/2	*	*M2/2	*
*met(c|)	*	*met(c|)	*	*met(c|)	*	*met(c|)	*	*met(c|)	*
!LO:TX:t=P:problem=oznaczenie metryczne obrócone alla breve	!	!LO:TX:t=P:problem=oznaczenie metryczne obrócone alla breve	!	!LO:TX:t=P:problem=oznaczenie metryczne obrócone alla breve	!	!LO:TX:t=P:problem=oznaczenie metryczne obrócone alla breve	!	!LO:TX:t=P:problem=oznaczenie metryczne obrócone alla breve	!
!	!	!LO:TX:b:t=Osanna	!	!LO:TX:b:t=Osanna	!	!	!	!	!
!	!	!LO:TX:a:t=allabreve	!	!LO:TX:a:t=allabreve	!	!LO:TX:a:t=allabreve	!	!LO:TX:a:t=allabr.	!
1g|	.	1g	.	1g	.	00r	.	1g	O-
=129	=129	=129	=129	=129	=129	=129	=129	=129	=129
1dd|	.	1dd	.	1dd	.	.	.	1dd	-san-
=130	=130	=130	=130	=130	=130	=130	=130	=130	=130
1cc|	.	1cc	.	1cc	.	.	.	1cc	-na
=131	=131	=131	=131	=131	=131	=131	=131	=131	=131
2b\	.	2b\	.	2b\	.	.	.	2b\	in
2ee\	.	2ee\	.	2ee\	.	.	.	2ee\	ex-
=132	=132	=132	=132	=132	=132	=132	=132	=132	=132
1dd	.	1dd	.	1dd	.	00r	.	1dd	-cel-
=133	=133	=133	=133	=133	=133	=133	=133	=133	=133
1cc	.	1cc	.	1cc	.	.	.	1cc	-ſis
!	!	!	!	!LO:LB:g=original	!	!	!	!	!
=134	=134	=134	=134	=134	=134	=134	=134	=134	=134
4b\|	.	4b\	.	4b\	.	.	.	4b\	o-
8g\L|	.	8g\L	.	8g\L	.	.	.	8g\L	.
8a\J|	.	8a\J	.	8a\J	.	.	.	8a\J	.
4b\|	.	4b\	.	4b\	.	.	.	4b\	-san-
4cc#X\|	.	4cc#X\	.	4cc#X\	.	.	.	4cc#X\	.
=135	=135	=135	=135	=135	=135	=135	=135	=135	=135
2dd\	.	2dd\	.	2dd\	.	.	.	2dd\	-na
2r	.	2r	.	2r	.	.	.	2r	.
=136	=136	=136	=136	=136	=136	=136	=136	=136	=136
*clefF4	*	*	*	*	*	*	*	*	*
*k[f#]	*	*	*	*	*	*	*	*	*
2G\	.	4bb\	.	4ddd\	.	4B\	O-	4dd\	in
.	.	8aa\L	.	8ccc\L	.	8A\L	.	8cc\L	.
.	.	8gg\J	.	8bb\J	.	8G\J	.	8b\J	.
2rBB	.	2aa\	.	2ccc\	.	2A\	.	2cc\	ex-
!LO:LB:g=original	!	!	!	!	!	!	!	!LO:LB:g=original	!
=137	=137	=137	=137	=137	=137	=137	=137	=137	=137
2D\	7	4aa\	.	4ccc\	.	4A\	-san-	4cc\	-cel-
.	.	8gg\L	.	8bb\L	.	8G\L	.	8b\L	.
.	.	8ff#\J	.	8aa\J	.	8F#\J	.	8a\J	.
2rBB	.	2gg\	.	2bb\	.	2G\	-na	2b\	-ſis
!	!	!LO:LB:g=original	!	!	!	!	!	!	!
=138	=138	=138	=138	=138	=138	=138	=138	=138	=138
!	!	!	!	!LO:TX:t=P:problem=takty 138-139 zapisane repetycją	!	!	!	!	!
2G\	.	4bb\	.	4ddd\yy	.	4B\	in	4dd\	in
.	.	8aa\L	.	8ccc\Lyy	.	8A\L	.	8cc\L	.
.	.	8gg\J	.	8bb\Jyy	.	8G\J	.	8b\J	.
2r	.	2aa\	.	2ccc\yy	.	2A\	ex-	2cc\	ex-
=139	=139	=139	=139	=139	=139	=139	=139	=139	=139
2D\	7	4aa\	.	4ccc\yy	.	4A\	-cel-	4cc\	-cel-
.	.	8gg\L	.	8bb\Lyy	.	8G\L	.	8b\L	.
.	.	8ff#\J	.	8aa\Jyy	.	8F#\J	.	8a\J	.
2rBB	.	2gg\	.	2bb\yy	.	2G\	-ſis	2b\	-ſis
=140	=140	=140	=140	=140	=140	=140	=140	=140	=140
2G\	.	2gg\	.	2bb\	.	2G\	o-	2b\	o-
2E\	6\	2ee\	.	2ccc#X\	.	2E\	-san-	2cc#X\	-san-
=141	=141	=141	=141	=141	=141	=141	=141	=141	=141
!	!	!LO:TX:t=P:problem=mixed beam	!	!LO:TX:t=P:problem=mixed beam	!	!	!	!	!
2D\	.	8ff#\L	.	8ddd\L	.	2D\	-na	2dd\	-na
.	.	8d/	.	8d/	.	.	.	.	.
.	.	8d/	.	8d/	.	.	.	.	.
.	.	8d/J	.	8d/J	.	.	.	.	.
2rBB	.	8d/L	.	8d/L	.	2rBB	.	2r	.
.	.	8d/	.	8d/	.	.	.	.	.
.	.	8d/	.	8d/	.	.	.	.	.
.	.	8d/J	.	8d/J	.	.	.	.	.
!	!	!	!	!	!	!LO:LB:g=original	!	!	!
=142	=142	=142	=142	=142	=142	=142	=142	=142	=142
2A\	.	2aa\	.	2aa\	.	2A\	o-	4a\	in
.	.	.	.	.	.	.	.	4a\	ex-
2B\	.	2bb\	.	2bbn\	.	2B\	-san-	2b\	-cel-
=143	=143	=143	=143	=143	=143	=143	=143	=143	=143
!	!	!LO:TX:t=P:problem=mixed beam	!	!LO:TX:t=P:problem=mixed beam	!	!	!	!	!
2c\	.	8ccc\L	.	8ccc\L	.	2c\	-na	2cc\	-ſis
.	.	8c/	.	8c/	.	.	.	.	.
.	.	8c/	.	8c/	.	.	.	.	.
.	.	8c/J	.	8c/J	.	.	.	.	.
2r	.	8c/L	.	8c/L	.	2r	.	2r	.
.	.	8c/	.	8c/	.	.	.	.	.
.	.	8c/	.	8c/	.	.	.	.	.
.	.	8c/J	.	8c/J	.	.	.	.	.
!	!	!	!	!LO:LB:g=original	!	!	!	!	!
=144	=144	=144	=144	=144	=144	=144	=144	=144	=144
2G\	.	2gg\	.	2gg\	.	2G\	o-	2g\	o-
2A\	.	2aa\	.	2aa\	.	2A\	-san-	2a\	-san-
=145	=145	=145	=145	=145	=145	=145	=145	=145	=145
!	!	!LO:TX:t=P:problem=mixed beam	!	!LO:TX:t=P:problem=mixed beam	!	!	!	!	!
2B\	.	8bb\L	.	8bbn\L	.	2B\	-na	2b\	-na
.	.	8B/	.	8Bn/	.	.	.	.	.
.	.	8B/	.	8B/	.	.	.	.	.
.	.	8B/J	.	8B/J	.	.	.	.	.
2r	.	8B/L	.	8B/L	.	2r	.	2r	.
.	.	8B/	.	8B/	.	.	.	.	.
.	.	8B/	.	8B/	.	.	.	.	.
.	.	8B/J	.	8B/J	.	.	.	.	.
!	!	!LO:LB:g=original	!	!	!	!	!	!LO:LB:g=original	!
=146	=146	=146	=146	=146	=146	=146	=146	=146	=146
2B\	.	2b\	.	2bn\	.	2B\	o-	2b\	o-
2c\	.	2cc\	.	2cc\	.	2c\	-san-	2cc\	-san-
!LO:LB:g=original	!	!	!	!	!	!	!	!	!
=147	=147	=147	=147	=147	=147	=147	=147	=147	=147
2.d\	.	2dd\	.	2.dd\	.	2d\	-na	2.dd\	-na
.	.	2ee\	.	.	.	4d\	in	.	.
4e\	.	.	.	4ee\	.	4e\	ex-	4ee\	in
=148	=148	=148	=148	=148	=148	=148	=148	=148	=148
2d\	.	2gg 2b 2d 2G/	.	2gg 2b 2d 2G/	.	2d\	-cel-	2b\	ex-
2D\	.	2ff# 2a 2d/	.	2ff# 2a 2d/	.	2D\	.	2a\	-cel-
=149	=149	=149	=149	=149	=149	=149	=149	=149	=149
2G\	.	2gg 2b 2d 2G/	.	2gg 2b 2d/	.	2G\	-ſis	2g\	-ſis
!LO:TX:a:t=22	!	!LO:TX:a:t=22	!	!LO:TX:a:t=22	!	!	!	!	!
2rBB	.	2rg	.	2rg	.	2rBB	.	2re	.
==	==	==	==	==	==	==	==	==	==
*-	*-	*-	*-	*-	*-	*-	*-	*-	*-
!!!system-decoration: [(g1)][(g2)]s5
!!!RDF**kern: | = vertical stroke
!!!ENC: Andrzej Kubiczek
!!!END: 2020-12-15
!!!ENC: Marta Lawrence
!!!END: 2022-03-24
